svg/business/pumpkin_lantern_line.svg

<?xml version="1.0" encoding="UTF-8"?>
<svg width="24px" height="24px" viewBox="0 0 24 24" version="1.1" xmlns="http://www.w3.org/2000/svg" xmlns:xlink="http://www.w3.org/1999/xlink">
    <title>pumpkin_lantern_line</title>
    <g id="Icon" stroke="none" stroke-width="1" fill="none" fill-rule="evenodd">
        <g id="Business" transform="translate(-433.000000, -480.000000)" fill-rule="nonzero">
            <g id="pumpkin_lantern_line" transform="translate(433.000000, 480.000000)">
                <path d="M24,0 L24,24 L0,24 L0,0 L24,0 Z M12.5935,23.2578 L12.5819,23.2595 L12.5109,23.295 L12.4919,23.2987 L12.4767,23.295 L12.4057,23.2595 C12.3958,23.2564 12.387,23.259 12.3821,23.2649 L12.378,23.2758 L12.3609,23.7031 L12.3659,23.7235 L12.3769,23.7357 L12.4805,23.8097 L12.4953,23.8136 L12.5071,23.8097 L12.6107,23.7357 L12.6233,23.7197 L12.6267,23.7031 L12.6096,23.2758 C12.6076,23.2657 12.601,23.2593 12.5935,23.2578 Z M12.8584,23.1453 L12.8445,23.1473 L12.6598,23.2397 L12.6499,23.2499 L12.6472,23.2611 L12.6651,23.6906 L12.6699,23.7034 L12.6784,23.7105 L12.8793,23.8032 C12.8914,23.8069 12.9022,23.803 12.9078,23.7952 L12.9118,23.7812 L12.8777,23.1665 C12.8753,23.1546 12.8674,23.147 12.8584,23.1453 Z M12.143,23.1473 C12.1332,23.1424 12.1222,23.1453 12.1156,23.1526 L12.1099,23.1665 L12.0758,23.7812 C12.0751,23.7927 12.0828,23.8019 12.0926,23.8046 L12.1083,23.8032 L12.3092,23.7105 L12.3186,23.7024 L12.3225,23.6906 L12.3404,23.2611 L12.3372,23.2485 L12.3278,23.2397 L12.143,23.1473 Z" id="MingCute"></path>
                <path d="M14,2 C14.5522,2 15,2.44772 15,3 C15,3.53932 14.573,3.97892 14.0387,3.99926 C13.8757667,4.0799 13.7422111,4.23866 13.6316926,4.40148074 L13.4824,4.6395 L13.4824,4.6395 C13.3775,4.81442 13.2897,4.99291 13.219,5.16286 C13.7513,5.30739 14.252,5.54331 14.7118,5.85121 C15.6566,5.23489 16.7505,4.92072 17.8892,5.1215 C19.5617,5.4164 20.7538,6.71247 21.4155,8.29149 C22.0821,9.88223 22.2804,11.8911 21.9165,13.955 C21.5525,16.0189 20.6791,17.8388 19.5086,19.1057 C18.3468,20.3632 16.7833,21.1733 15.1108,20.8784 C14.7343,20.812 14.3781,20.693 14.0455,20.5294 C13.4146,20.8305 12.7256,21 12,21 C11.2744,21 10.5854,20.8305 9.95453,20.5294 C9.6219,20.693 9.26577,20.812 8.88918,20.8784 C7.21672,21.1733 5.65318,20.3632 4.49137,19.1057 C3.32093,17.8389 2.44747,16.019 2.08355,13.9551 C1.71963,11.8911 1.91797,9.88225 2.58454,8.29151 C3.2462,6.71249 4.43835,5.41642 6.11081,5.12152 C7.2495,4.92074 8.34345,5.23491 9.28824,5.85121 C9.84896,5.47571 10.4705,5.20726 11.1361,5.08109 C11.2739,4.57118 11.5039,4.04983 11.7675,3.6105 C11.9901,3.23941 12.2724,2.86557 12.6107,2.57244 C12.939,2.28788 13.4142,2 14,2 Z M12,7 C11.2917,7 10.5946,7.2869 9.96693,7.85246 C9.59176,8.19052 9.02341,8.19581 8.64202,7.86477 C7.87924,7.2027 7.11945,6.97453 6.4581,7.09114 C5.68303,7.22781 4.93148,7.86564 4.42914,9.06445 C3.93171,10.2515 3.74576,11.8644 4.05316,13.6078 C4.36057,15.3511 5.08693,16.8031 5.96036,17.7485 C6.84243,18.7032 7.76681,19.0455 8.54188,18.9088 C8.83144,18.8578 9.1063,18.7419 9.36545,18.5604 C9.69616,18.3288 10.1337,18.3188 10.4746,18.5351 C10.9594,18.8425 11.4735,19 12,19 C12.5265,19 13.0407,18.8425 13.5254,18.5351 C13.8664,18.3188 14.3039,18.3288 14.6346,18.5604 C14.8937,18.7418 15.1686,18.8578 15.4581,18.9088 C16.2332,19.0455 17.1576,18.7031 18.0397,17.7484 C18.9131,16.8031 19.6395,15.3511 19.9469,13.6077 C20.2543,11.8644 20.0683,10.2515 19.5709,9.06443 C19.0685,7.86562 18.317,7.22778 17.5419,7.09112 C16.8806,6.9745 16.1208,7.20268 15.358,7.86477 C14.9766,8.1958 14.4082,8.19052 14.0331,7.85246 C13.4054,7.28689 12.7083,7 12,7 Z M16.8,14.4 C17.1313,14.8418 17.0418,15.4686 16.6,15.8 L15.6509,16.5118 C14.6498,17.2626 13.2488,17.1631 12.3639,16.2782 C12.1629,16.0772 11.837,16.0772 11.636,16.2782 C10.7511,17.1631 9.35015,17.2626 8.34899,16.5118 L7.39996,15.8 C6.95813,15.4686 6.86858,14.8418 7.19995,14.4 C7.53133,13.9582 8.15813,13.8686 8.59996,14.2 L9.54899,14.9118 C9.75391,15.0655 10.0407,15.0451 10.2218,14.864 C11.2038,13.8819 12.7961,13.8819 13.7781,14.864 C13.9593,15.0451 14.246,15.0655 14.4509,14.9118 L15.4,14.2 C15.8418,13.8686 16.4686,13.9582 16.8,14.4 Z M7.25883,9.03414 L9.99088,9.76619 C10.3816,9.87088 10.6707,10.2006 10.7235,10.6016 C10.7763,11.0026 10.5823,11.3959 10.2321,11.5981 L8.5000113,12.5981 C8.02172,12.8743 7.41013,12.7104 7.13399,12.2321 L6.13399,10.5001 C5.93176,10.1498 5.96044,9.71219 6.20666,9.39131 C6.45288,9.07043 6.86815,8.92946 7.25883,9.03414 Z M17.7933,9.39131 C18.0395,9.71219 18.0682,10.1498 17.8659,10.5001 L16.8659,12.2321 C16.5898,12.7104 15.9782,12.8743 15.4999,12.5981 L13.7678,11.5981 C13.4176,11.3959 13.2236,11.0026 13.2764,10.6016 C13.3292,10.2006 13.6183,9.87088 14.009,9.76619 L16.7411,9.03414 C17.1318,8.92946 17.547,9.07043 17.7933,9.39131 Z" id="形状" fill="#09244B"></path>
            </g>
        </g>
    </g>
</svg>

<svg xmlns="http://www.w3.org/2000/svg" width="24" height="24"><g fill="none" fill-rule="nonzero"><path d="M24 0v24H0V0zM12.594 23.258l-.012.002-.071.035-.02.004-.014-.004-.071-.036c-.01-.003-.019 0-.024.006l-.004.01-.017.428.005.02.01.013.104.074.015.004.012-.004.104-.074.012-.016.004-.017-.017-.427c-.002-.01-.009-.017-.016-.018m.264-.113-.014.002-.184.093-.01.01-.003.011.018.43.005.012.008.008.201.092c.012.004.023 0 .029-.008l.004-.014-.034-.614c-.003-.012-.01-.02-.02-.022m-.715.002a.023.023 0 0 0-.027.006l-.006.014-.034.614c0 .012.007.02.017.024l.015-.002.201-.093.01-.008.003-.011.018-.43-.003-.012-.01-.01z"/><path fill="#09244B" d="M14 2a1 1 0 0 1 .039 2c-.163.08-.297.239-.407.401l-.15.239a4.044 4.044 0 0 0-.263.523c.532.144 1.033.38 1.493.688.945-.616 2.038-.93 3.177-.73 1.673.295 2.865 1.591 3.527 3.17.666 1.591.864 3.6.5 5.664-.364 2.064-1.237 3.884-2.407 5.15-1.162 1.258-2.726 2.068-4.398 1.773a3.97 3.97 0 0 1-1.065-.349c-.631.302-1.32.471-2.046.471-.726 0-1.415-.17-2.045-.47a3.97 3.97 0 0 1-1.066.348c-1.672.295-3.236-.515-4.398-1.772-1.17-1.267-2.044-3.087-2.407-5.15-.364-2.065-.166-4.074.5-5.664.662-1.58 1.854-2.876 3.527-3.17 1.139-.201 2.232.113 3.177.73a4.99 4.99 0 0 1 1.848-.77c.138-.51.368-1.032.632-1.471.222-.372.504-.745.843-1.039C12.939 2.288 13.414 2 14 2m-2 5c-.708 0-1.405.287-2.033.852a1 1 0 0 1-1.325.013c-.763-.662-1.523-.89-2.184-.774-.775.137-1.527.775-2.029 1.973-.497 1.188-.683 2.8-.376 4.544.308 1.743 1.034 3.195 1.907 4.14.882.955 1.807 1.297 2.582 1.16.29-.05.564-.166.823-.348a1 1 0 0 1 1.11-.025c.484.308.999.465 1.525.465.527 0 1.04-.157 1.525-.465a1 1 0 0 1 1.11.025c.259.182.534.298.823.349.775.137 1.7-.206 2.582-1.16.873-.946 1.6-2.398 1.907-4.141.307-1.744.121-3.357-.376-4.544-.503-1.198-1.254-1.836-2.03-1.973-.66-.117-1.42.112-2.183.774a1 1 0 0 1-1.325-.013C13.405 7.287 12.708 7 12 7m4.8 7.4a1 1 0 0 1-.2 1.4l-.95.712a2.515 2.515 0 0 1-3.286-.234.515.515 0 0 0-.728 0 2.515 2.515 0 0 1-3.287.234L7.4 15.8a1 1 0 1 1 1.2-1.6l.949.712a.515.515 0 0 0 .673-.048 2.515 2.515 0 0 1 3.556 0 .515.515 0 0 0 .673.048l.949-.712a1 1 0 0 1 1.4.2M7.259 9.034l2.732.732a1 1 0 0 1 .241 1.832l-1.732 1a1 1 0 0 1-1.366-.366l-1-1.732a1 1 0 0 1 1.125-1.466m10.534.357a1 1 0 0 1 .073 1.11l-1 1.731a1 1 0 0 1-1.366.366l-1.732-1a1 1 0 0 1 .241-1.832l2.732-.732a1 1 0 0 1 1.052.357"/></g></svg>
